X:887
T:Bobby Boghill Two Step, The
C:Joe Buchanan's Scottish Tome - Page 446.0
I:446 0
C:Willie Laurie
R:Two-step
Z:Carl Allison
L:1/8
M:6/8
K:A
"A7"EFG | "A"A2 c "E7"dcB | "A"A2 c "A7"E2 A | "D"F2 G AGF | "A"E3 "E"E2 D |
"A"CEA cde | "E7"d2 B "A"c2 A | "B"BcB "B7"AGF | "E"E3 "E7"EFG |
"A"A2 c "E7"dcB | "A"A2 c "A7"E2 A | "D"F2 G AGF | "A"E3 "A7"E2 A |
"D"EAc efe | "A"EFE dcB | "E"EFE "D7"dcB | "A"A3 A3 :|
[K:D] (3A^G=G | "D"F2 A B2 A | "D"F2 f dcB | "D"ABA FAd | "A"c3 c3 |
"Em"G2 A B2 d | "A"c2 d ecA | "Em"GAB "A"cde | "D"F3 "A7"A^G=G |
"D"F2 A B2 A | "D"F2 f dcB | "D"ABA def | "G"B3 B3 |
"G"e2 d c2 B | "D"d2 F ABA | "Em"GAB "A7"cde | "D"d3 d3 :|
[K:G] d2 | "G"B3 G2 B | "G"dBG D2 B | "G"ded "Em"dcB | "Am"c3 A3 |
"Am"E3 A2 c | "Am"ecA "A7"E2 G | "D"FGA "A7"GFE | "D"DFA dcA |
"G"B3 G2 B | "G"dBG D2 B | "G"ded Bdg | "C"e3 c3 |
"C"G3 E3 | "G"DGB ded | "D"fed cBA | "G"G3 G3 :|
